images/data_analysis/sigmoid_function.svg

<svg xmlns:xlink="http://www.w3.org/1999/xlink" width="16.029ex" height="5.509ex" style="vertical-align:-2.171ex" viewBox="0 -1437.2 6901.5 2372" xmlns="http://www.w3.org/2000/svg"><defs><path stroke-width="10" id="a" d="M308 24q59 0 108 52t50 121q0 63-52 87-106 27-136 37t-42 20q-60 42-60 121 0 61 32 111t65 75q29 25 70 40t64 16h18q96 0 139-64 1 0 13 13t26 29 20 22h4q3 0 5 1 13 0 13-7t-28-121-32-118-16-3q-20 0-20 9 0 6 1 10 0 3 1 19t2 26q0 34-9 59t-18 37-25 25q-36 21-82 21-57 0-106-46t-50-106q0-30 15-52t41-31q4-2 70-19t67-18q34-11 66-48t32-100q0-26-8-56-5-22-18-49t-36-59-66-60-94-38q-12-2-34-2-99 0-154 55l-10 11-28-31Q83-14 78-18t-13-4q-13 0-13 8 0 3 58 235 2 6 20 6h13q6-6 6-11 0-2-1-9t-4-21-2-33q2-39 18-66t43-40 52-18 53-5z"/><path stroke-width="10" id="b" d="M94 250q0 69 10 131t23 107 37 88 38 67 42 52 33 34 25 21h17q14 0 14-9 0-3-17-21t-41-53-49-86-42-138-17-193 17-192 41-139 49-86 42-53 17-21q0-9-15-9h-16l-28 24q-94 85-137 212T94 250z"/><path stroke-width="10" id="c" d="M26 385q-7 7-7 10 0 4 3 16t5 14q2 5 9 5t51 1h53l19 80q3 11 7 29t7 26 6 20 8 17 10 12 14 9 18 2q18-1 25-11t7-19q0-7-9-47t-20-79l-10-37q0-2 50-2h51q7-7 7-11 0-22-13-35H210l-36-145Q135 80 135 68q0-42 27-42 35 0 68 34t53 84q2 6 5 7t15 2h4q15 0 15-8 0-3-3-12-5-16-18-38t-34-47-51-42-61-17q-30 0-57 15T59 56q-2 8-2 27v18l35 140q35 141 36 142 0 2-51 2H26z"/><path stroke-width="10" id="d" d="M60 749l4 1h22l28-24q94-85 137-212t43-264q0-68-10-131T261 12t-37-88-38-67-41-51-32-33-23-19l-4-4H63q-3 0-5 3t-3 9q1 1 11 13Q221-64 221 250T66 725q-10 12-11 13 0 8 5 11z"/><path stroke-width="10" id="e" d="M56 347q0 13 14 20h637q15-8 15-20 0-11-14-19l-318-1H72q-16 5-16 20zm0-194q0 15 16 20h636q14-10 14-20 0-13-15-20H70q-14 7-14 20z"/><path stroke-width="10" id="f" d="M213 578l-13-5q-14-5-40-10t-58-7H83v46h19q47 2 87 15t56 24 28 22q2 3 12 3 9 0 17-6V361l1-300q7-7 12-9t24-4 62-2h26V0h-11q-21 3-159 3-136 0-157-3H88v46h64q16 0 25 1t16 3 8 2 6 5 6 4v517z"/><path stroke-width="10" id="g" d="M56 237v13l14 20h299v150l1 150q10 13 19 13 13 0 20-15V270h298q15-8 15-20t-15-20H409V-68q-8-14-18-14h-4q-12 0-18 14v298H70q-14 7-14 20z"/><path stroke-width="10" id="h" d="M39 168q0 57 19 104t49 78 67 52 70 31 63 9h3q45 0 78-22t33-65q0-90-111-118-49-13-134-14-37 0-38-2 0-2-6-35t-7-58q0-47 21-74t63-28 93 19 92 66q9 10 12 10 4 0 13-9t10-14-9-16-30-27-46-31-63-25-76-10q-79 0-122 53T39 168zm334 185q-6 52-68 52-33 0-61-14t-45-34-29-41-16-36-5-19q0-1 20-1 113 0 158 24t46 69z"/><path stroke-width="10" id="i" d="M84 237v13l14 20h581q15-8 15-20t-15-20H98q-14 7-14 20z"/><path stroke-width="10" id="j" d="M78 60q0 24 17 42t43 18q24 0 42-16t19-43q0-25-17-43T139 0 96 17 78 60z"/></defs><g stroke="currentColor" fill="currentColor" stroke-width="0" transform="scale(1 -1)"><use xlink:href="#a"/><use xlink:href="#b" x="650"/><use xlink:href="#c" x="1044"/><use xlink:href="#d" x="1410"/><use xlink:href="#e" x="2081"/><g transform="translate(3262)"><path stroke="none" d="M0 220h3235v60H0z"/><use xlink:href="#f" x="1365" y="676"/><g transform="translate(60 -759)"><use xlink:href="#f"/><use xlink:href="#g" x="727"/><g transform="translate(1732)"><use xlink:href="#h"/><g transform="matrix(.707 0 0 .707 471 288)"><use xlink:href="#i"/><use xlink:href="#c" x="783"/></g></g></g></g><use xlink:href="#j" x="6618"/></g></svg>

<?xml version="1.0" standalone="no"?>
<!DOCTYPE svg PUBLIC "-//W3C//DTD SVG 1.1//EN" "http://www.w3.org/Graphics/SVG/1.1/DTD/svg11.dtd">
<svg xmlns:xlink="http://www.w3.org/1999/xlink" width="16.029ex" height="5.509ex" style="vertical-align: -2.171ex;" viewBox="0 -1437.2 6901.5 2372" xmlns="http://www.w3.org/2000/svg">
<defs>
<path stroke-width="10" id="E1-MJMATHI-53" d="M308 24Q367 24 416 76T466 197Q466 260 414 284Q308 311 278 321T236 341Q176 383 176 462Q176 523 208 573T273 648Q302 673 343 688T407 704H418H425Q521 704 564 640Q565 640 577 653T603 682T623 704Q624 704 627 704T632 705Q645 705 645 698T617 577T585 459T569 456Q549 456 549 465Q549 471 550 475Q550 478 551 494T553 520Q553 554 544 579T526 616T501 641Q465 662 419 662Q362 662 313 616T263 510Q263 480 278 458T319 427Q323 425 389 408T456 390Q490 379 522 342T554 242Q554 216 546 186Q541 164 528 137T492 78T426 18T332 -20Q320 -22 298 -22Q199 -22 144 33L134 44L106 13Q83 -14 78 -18T65 -22Q52 -22 52 -14Q52 -11 110 221Q112 227 130 227H143Q149 221 149 216Q149 214 148 207T144 186T142 153Q144 114 160 87T203 47T255 29T308 24Z"></path>
<path stroke-width="10" id="E1-MJMAIN-28" d="M94 250Q94 319 104 381T127 488T164 576T202 643T244 695T277 729T302 750H315H319Q333 750 333 741Q333 738 316 720T275 667T226 581T184 443T167 250T184 58T225 -81T274 -167T316 -220T333 -241Q333 -250 318 -250H315H302L274 -226Q180 -141 137 -14T94 250Z"></path>
<path stroke-width="10" id="E1-MJMATHI-74" d="M26 385Q19 392 19 395Q19 399 22 411T27 425Q29 430 36 430T87 431H140L159 511Q162 522 166 540T173 566T179 586T187 603T197 615T211 624T229 626Q247 625 254 615T261 596Q261 589 252 549T232 470L222 433Q222 431 272 431H323Q330 424 330 420Q330 398 317 385H210L174 240Q135 80 135 68Q135 26 162 26Q197 26 230 60T283 144Q285 150 288 151T303 153H307Q322 153 322 145Q322 142 319 133Q314 117 301 95T267 48T216 6T155 -11Q125 -11 98 4T59 56Q57 64 57 83V101L92 241Q127 382 128 383Q128 385 77 385H26Z"></path>
<path stroke-width="10" id="E1-MJMAIN-29" d="M60 749L64 750Q69 750 74 750H86L114 726Q208 641 251 514T294 250Q294 182 284 119T261 12T224 -76T186 -143T145 -194T113 -227T90 -246Q87 -249 86 -250H74Q66 -250 63 -250T58 -247T55 -238Q56 -237 66 -225Q221 -64 221 250T66 725Q56 737 55 738Q55 746 60 749Z"></path>
<path stroke-width="10" id="E1-MJMAIN-3D" d="M56 347Q56 360 70 367H707Q722 359 722 347Q722 336 708 328L390 327H72Q56 332 56 347ZM56 153Q56 168 72 173H708Q722 163 722 153Q722 140 707 133H70Q56 140 56 153Z"></path>
<path stroke-width="10" id="E1-MJMAIN-31" d="M213 578L200 573Q186 568 160 563T102 556H83V602H102Q149 604 189 617T245 641T273 663Q275 666 285 666Q294 666 302 660V361L303 61Q310 54 315 52T339 48T401 46H427V0H416Q395 3 257 3Q121 3 100 0H88V46H114Q136 46 152 46T177 47T193 50T201 52T207 57T213 61V578Z"></path>
<path stroke-width="10" id="E1-MJMAIN-2B" d="M56 237T56 250T70 270H369V420L370 570Q380 583 389 583Q402 583 409 568V270H707Q722 262 722 250T707 230H409V-68Q401 -82 391 -82H389H387Q375 -82 369 -68V230H70Q56 237 56 250Z"></path>
<path stroke-width="10" id="E1-MJMATHI-65" d="M39 168Q39 225 58 272T107 350T174 402T244 433T307 442H310Q355 442 388 420T421 355Q421 265 310 237Q261 224 176 223Q139 223 138 221Q138 219 132 186T125 128Q125 81 146 54T209 26T302 45T394 111Q403 121 406 121Q410 121 419 112T429 98T420 82T390 55T344 24T281 -1T205 -11Q126 -11 83 42T39 168ZM373 353Q367 405 305 405Q272 405 244 391T199 357T170 316T154 280T149 261Q149 260 169 260Q282 260 327 284T373 353Z"></path>
<path stroke-width="10" id="E1-MJMAIN-2212" d="M84 237T84 250T98 270H679Q694 262 694 250T679 230H98Q84 237 84 250Z"></path>
<path stroke-width="10" id="E1-MJMAIN-2E" d="M78 60Q78 84 95 102T138 120Q162 120 180 104T199 61Q199 36 182 18T139 0T96 17T78 60Z"></path>
</defs>
<g stroke="currentColor" fill="currentColor" stroke-width="0" transform="matrix(1 0 0 -1 0 0)">
 <use xlink:href="#E1-MJMATHI-53" x="0" y="0"></use>
 <use xlink:href="#E1-MJMAIN-28" x="650" y="0"></use>
 <use xlink:href="#E1-MJMATHI-74" x="1044" y="0"></use>
 <use xlink:href="#E1-MJMAIN-29" x="1410" y="0"></use>
 <use xlink:href="#E1-MJMAIN-3D" x="2081" y="0"></use>
<g transform="translate(3142,0)">
<g transform="translate(120,0)">
<rect stroke="none" width="3235" height="60" x="0" y="220"></rect>
 <use xlink:href="#E1-MJMAIN-31" x="1365" y="676"></use>
<g transform="translate(60,-759)">
 <use xlink:href="#E1-MJMAIN-31" x="0" y="0"></use>
 <use xlink:href="#E1-MJMAIN-2B" x="727" y="0"></use>
<g transform="translate(1732,0)">
 <use xlink:href="#E1-MJMATHI-65" x="0" y="0"></use>
<g transform="translate(471,288)">
 <use transform="scale(0.707)" xlink:href="#E1-MJMAIN-2212" x="0" y="0"></use>
 <use transform="scale(0.707)" xlink:href="#E1-MJMATHI-74" x="783" y="0"></use>
</g>
</g>
</g>
</g>
</g>
 <use xlink:href="#E1-MJMAIN-2E" x="6618" y="0"></use>
</g>
</svg>
